X:438
T:Andro Mod Koh
Z:Cooper on melodeon.net
Z:Jack Campin, http://www.campin.me.uk/
F:Jack Campin's Nine-Note Tunebook
% last edit 29-07-2013
Q:1/2=100
M:C|
L:1/8
K:EMin
E2B2 B4  |AGFA G2E2|FGAF G2E2|EDEF G2F2|
E2B2 B4  |AGFA G2E2|FGAF G2E2|G2F2 E4 :|
FGAF G2E2|EDEF G2E2|FGAF G2E2|G2F2 E4 :|

